X: 4
T: The Unfortunate Rake  v.2
P: piffero secondo a0296
C: Karen Lucetti
F: http://ancients.sudburymuster.org/mus/med/pdf/shotgunC1.pdf
Z: 2019 John Chambers <jc:trillian.mit.edu>
M: 6/8
L: 1/8
K: Em
E |\
(EG)G GAB | FDF FEF | (EG)G GFG | AFA E2E |\
(EG)G GFG | AFA FEF |  GFE  FGG | FGA E2 :|
|: B |\
(GE)G GAG | AFD FEF | (BG)E GAG | FGG F2B |\
(GE)G GAG | AFD FEF |  GFE  FGG | FGA E2 :|


